X: 01007
T: BECKY'S BIRTHDAY
C: Bob McQuillen 25 Nov'73
B: Bob's Note Book 1 #7
%R: reel
Z: 2019 John Chambers <jc:trillian.mit.edu>
M: C
L: 1/8
K: G
Bc \
| dedc B2G2 | D2D2 G2AB | cdcA F2D2 | d2de dcBc |\
| dedc B2G2 | D2D2 G2DD | E4   D2G2 | F4-  F2  :|
|: FG \
| ABAG F2D2 | FGAB A2GA | BcBA G2E2 | BABc B2D2 |\
| GFGA BABc | d2g2 d2DD | E4   D2A2 | G4-  G2  :|
%%begintext align
%% With love from Daddy
%%endtext

%%sep 1 1 500

%%sep 1 1 500

